src/actions/16/format-justify-fill.svg

<svg xmlns="http://www.w3.org/2000/svg" viewBox="0 0 16 16">
    <path d="M2 2v1h12V2H2zm0 2v1h12V4H2zm0 3v1h12V7H2zm0 2v1h12V9H2zm0 3v1h12v-1H2z" style="fill:currentColor;fill-opacity:1;stroke:none;color:#050505;opacity:.7"/>
</svg>

<svg xmlns="http://www.w3.org/2000/svg" viewBox="0 0 16 16">
  <defs id="defs3051">
    <style type="text/css" id="current-color-scheme">
      .ColorScheme-Text {
        color:#363636;
      }
      </style>
  </defs>
 <path style="fill:currentColor;fill-opacity:1;stroke:none" 
       d="M 2 2 L 2 3 L 14 3 L 14 2 L 2 2 z M 2 4 L 2 5 L 9 5 L 14 5 L 14 4 L 9 4 L 2 4 z M 2 7 L 2 8 L 5 8 L 14 8 L 14 7 L 5 7 L 2 7 z M 2 9 L 2 10 L 10 10 L 14 10 L 14 9 L 10 9 L 2 9 z M 2 12 L 2 13 L 6 13 L 14 13 L 14 12 L 6 12 L 2 12 z "
     class="ColorScheme-Text"
     />
</svg>
